public/illustrations/_hospital.svg

<svg width="283" height="258" viewBox="0 0 283 258" fill="none" xmlns="http://www.w3.org/2000/svg">
<path d="M81.6671 57.7386C81.7096 54.3688 81.7238 51.4522 81.7238 48.5355C81.7663 46.9214 81.7662 45.1657 81.9361 43.5233C82.3609 38.7519 84.8104 36.2458 89.5819 36.09C97.1426 35.9768 104.732 35.9911 112.278 35.8778C113.439 35.8778 114.586 35.7502 116.016 35.6794L116.073 17.0043C116.115 14.2292 116.059 11.61 116.129 8.9623C116.214 4.57313 118.041 2.50592 122.331 2.18028C126.451 1.74136 130.5 1.61413 134.663 1.3168C140.978 0.920355 147.264 0.382107 153.452 0.0281419C158.775 -0.269189 161.168 1.76964 161.465 7.09327C161.961 14.9938 162.315 22.9228 162.711 30.9932C162.782 31.8568 162.839 32.7063 163.051 34.1222C167.313 34.2354 171.461 34.5186 175.681 34.5045C180.211 34.5469 184.742 34.6034 189.146 34.6742C196.494 34.9007 199.538 37.7891 199.934 45.279C200.133 49.6115 200.048 54.0006 200.104 58.3615C200.062 59.3951 200.161 60.3864 200.232 61.8306C204.352 61.9722 208.302 62.0287 212.252 62.0712C232.032 62.4393 251.769 62.6516 271.69 62.9914C274.225 63.2321 276.703 63.7986 279.039 64.9738C281.644 66.0782 282.083 68.4569 282.154 71.0621C282.097 77.3485 282.182 83.5921 282.14 89.8785C282.069 117.318 282.168 144.857 282.225 172.254C282.309 179.092 282.663 185.86 282.748 192.684C282.777 194.567 282.536 196.535 282.111 198.376C281.871 199.749 280.964 200.84 280.002 201.661C278.897 202.51 277.524 202.85 276.193 202.751C257.475 203.147 238.616 203.572 219.941 204.11C210.228 204.323 200.359 204.577 190.675 204.931C189.641 204.889 188.678 205.13 187.234 205.201L188.565 210.566C191.906 221.695 195.404 232.937 198.887 244.038C199.085 244.859 199.326 245.822 199.665 246.615C202.525 253.496 198.844 257.46 191.156 257.615C180.268 257.828 169.352 257.318 158.365 257.12C138.727 256.724 119.046 256.186 99.4079 255.789C91.1959 255.633 88.9447 252.391 92.0171 244.774C96.4771 233.32 100.767 221.752 105.199 210.156C105.539 209.193 105.751 208.273 105.921 207.211C99.8044 207.268 94.1126 207.211 88.4067 207.168C62.9211 207.338 37.5771 207.48 12.1057 207.65C8.90582 207.707 5.7201 207.763 3.14322 205.045C2.18043 204.11 1.50081 203.119 0.920304 201.944C0.339799 200.769 0.169904 199.509 0 198.234C0.127428 191.636 0.0991002 185.081 0.254845 178.625C0.722081 147.448 1.00528 116.157 1.47251 84.9797C1.52915 78.1128 1.5433 71.1044 1.72736 64.2092C1.76983 62.5951 2.08132 60.9103 2.56271 59.3387C2.90252 58.3759 3.56797 57.4837 4.45997 56.974C5.35196 56.4643 6.45635 56.1953 7.34835 56.266C22.314 56.6483 37.4213 57.0026 52.3587 57.2433C61.3212 57.5123 70.3544 57.4698 79.2744 57.583C79.7557 57.7529 80.4354 57.583 81.6105 57.583L81.6388 57.7244L81.6671 57.7386ZM81.5256 68.4142L12.0632 67.6496L10.3783 197.144C11.9924 197.187 13.3375 197.286 14.4985 197.286L47.7005 197.102C66.8006 197.045 86.028 196.96 105.086 196.776C106.799 196.649 108.385 196.55 110.069 196.281C110.098 186.936 110.253 178.143 110.381 169.223C110.381 160.332 110.834 151.61 110.423 142.818C108.781 142.648 107.606 142.634 106.402 142.492C105.057 142.379 103.896 141.798 102.933 140.864C101.971 139.929 101.532 138.726 101.503 137.423C101.475 136.121 101.886 134.846 102.82 133.884C103.755 132.921 104.916 132.34 106.218 132.312C108.215 132.114 110.098 132.085 111.995 132.057C128.447 131.93 144.928 131.944 161.38 131.816C169.38 131.732 177.281 131.817 185.309 131.887C189.117 131.972 191.241 134.068 191.128 137.154C191.085 139.929 188.919 141.784 185.379 142.223C183.935 142.294 182.392 142.52 180.707 142.789L182.321 194.751C212.337 194.043 241.773 193.335 271.025 192.514C271.719 188.252 272.059 76.3146 270.515 73.6245C247.239 73.2564 223.778 72.775 200.26 72.6193C200.118 74.4033 200.118 75.5786 199.934 76.6405C199.269 82.2048 197.23 84.0169 191.737 84.2009C186.512 84.3284 181.259 84.3143 175.865 84.3285C172.665 84.3851 169.479 84.4417 166.01 84.5832C165.84 86.2256 165.755 87.7125 165.798 89.0151C165.812 94.99 165.869 101.107 165.755 107.11C165.67 112.094 163.816 114.005 159.002 114.033C147.675 114.203 136.405 114.076 125.035 114.118C120.504 114.076 118.338 111.839 117.942 107.265C117.772 104.25 117.644 101.361 117.517 98.4729C117.319 93.5599 117.163 88.7884 117.035 83.5639C112.887 83.2807 109.036 83.0684 105.227 82.9835C99.9035 82.7003 94.3816 82.7427 88.9872 82.1905C82.8706 81.6525 81.1291 79.3165 81.1433 73.4831C81.2141 72.0106 81.1149 70.4248 81.2282 68.4993L81.4972 68.4284L81.5256 68.4142ZM189.584 73.6528C189.514 63.8976 189.33 54.9069 189.315 45.4207C187.248 45.3499 185.436 45.0667 183.68 45.0667C175.468 44.911 167.27 44.7553 159.03 44.458C154.457 44.2739 152.857 42.4899 152.63 38.0158C152.262 32.4231 152.036 26.788 151.781 21.0113C151.554 17.7123 151.455 14.385 151.115 10.6754C142.733 11.0011 134.833 11.4965 126.734 12.3319C126.692 14.5265 126.522 16.1831 126.621 17.7547C126.607 24.7632 126.692 31.5876 126.663 38.5961C126.692 43.4101 124.865 45.4631 120.193 46.0294C117.205 46.3267 114.006 46.3976 110.961 46.4117C104.986 46.4259 99.0115 46.4544 92.3428 46.6385C92.2578 55.1195 92.2295 63.2887 92.2012 71.4724C93.4047 71.614 94.1551 71.7131 94.9197 71.8263C102.749 72.2228 110.537 72.492 118.338 72.7468C124.214 72.9026 127.088 75.1114 127.853 82.3464C127.994 82.8986 127.952 83.3373 127.952 83.932C128.15 89.4255 128.192 94.9614 128.391 100.455C128.631 101.418 128.759 102.551 129.141 103.485C138.104 103.159 146.755 103.938 155.448 103.103C155.448 101.942 155.561 101.177 155.66 100.427C155.646 93.8715 155.49 87.3443 155.788 80.8597C155.873 75.8759 158.039 74.0351 163.122 73.9359C166.449 73.8368 169.819 73.8793 173.189 73.9359C178.583 73.9218 183.978 73.8937 189.768 73.7804L189.599 73.6812L189.584 73.6528ZM175.936 206.092L117.97 205.838C113.057 219.005 107.776 231.847 102.99 245.567L188.494 247.478C184.247 233.22 180.183 219.784 175.936 206.092ZM170.13 142.478L149.6 142.591C149.615 160.374 149.685 177.719 149.94 195.304H171.815L170.102 142.336L170.13 142.478ZM139.406 195.148C139.208 177.251 139.321 160.02 138.925 142.464L121.028 142.662C120.915 160.488 120.49 177.648 120.575 195.134L139.25 195.19L139.392 195.162L139.406 195.148Z" fill="#102185"/>
<path d="M204.706 122.995C200.586 121.679 197.57 119.512 197.513 114.557C197.57 108.851 197.471 103.188 197.697 97.595C197.881 93.6164 200.048 91.181 204.168 90.7421C207.608 90.4731 211.106 90.4872 214.504 90.6712C224.91 90.8694 235.317 91.0676 245.723 91.2658C251.429 91.3082 253.553 93.4181 253.737 98.9116C253.921 105.58 254.119 112.235 254.162 118.932C254.19 123.151 252.222 125.247 248.102 125.091C233.958 124.51 219.771 123.774 205.768 123.151C205.499 123.222 205.017 123.052 204.706 122.981V122.995ZM230.687 113.665L243.84 114.359C243.755 109.856 243.557 106.118 243.5 101.758L230.8 101.687C230.857 106.048 230.744 109.729 230.729 113.806L230.701 113.665H230.687ZM219.94 113.254C220.082 109.134 220.068 105.495 220.209 101.375L208.359 101.233C208.359 105.325 208.345 108.823 208.26 112.631L219.898 113.113L219.926 113.254H219.94Z" fill="#102185"/>
<path d="M34.6745 125.501C29.9455 124.043 27.2695 121.494 27.4111 116.794C27.496 110.649 27.4394 104.532 27.6659 98.3592C27.8217 93.6585 29.9455 91.6623 34.7877 91.7898C41.6547 91.8464 48.6916 92.0022 55.601 92.1862C61.9157 92.3703 68.2305 92.5686 74.5169 92.6111C80.8034 92.6677 83.3661 94.7913 83.8758 100.95C84.3006 106.826 84.4563 112.759 84.3147 118.634C84.2723 123.165 81.5821 125.869 77.0796 125.968C63.5156 125.968 49.9233 125.827 36.3168 125.685C35.9062 125.784 35.2833 125.643 34.8019 125.473L34.6603 125.501H34.6745ZM73.4692 115.477C73.271 111.145 73.186 107.237 73.0586 103.188L60.4574 102.947C60.3724 107.336 60.3016 111.159 60.3158 115.378L73.4267 115.35L73.455 115.491L73.4692 115.477ZM49.5411 115.406C49.9658 111.215 49.9375 106.996 49.6118 102.706L37.9027 102.536C37.9027 107.209 37.9876 111.116 38.0017 115.35L49.5411 115.42V115.406Z" fill="#102185"/>
<path d="M84.7395 163.447C84.0032 167.567 81.6671 169.308 77.1646 169.407C69.8871 169.45 62.6095 169.507 55.1479 169.45C48.5924 169.464 42.037 169.478 35.4674 169.506C31.0782 169.421 28.9402 167.906 28.4447 163.517C28.1049 159.808 27.9208 156.07 28.0341 152.389C28.0058 149.911 27.9775 147.447 28.119 145.069C28.1757 139.363 30.9932 136.63 36.6567 136.545C47.4456 136.503 58.2203 136.46 69.0092 136.432C72.2091 136.375 75.3948 136.319 78.6229 136.389C82.1626 136.531 84.2439 138.499 84.3431 141.826C84.4988 148.354 84.6546 154.881 84.6687 161.436C84.697 162.158 84.5979 162.908 84.5979 163.489L84.7395 163.461V163.447ZM74.2904 158.887C74.0922 154.555 74.078 150.916 73.9506 146.867L61.2786 146.938C61.1653 151.199 61.0521 154.866 61.0379 158.958L74.1488 158.93L74.2904 158.902V158.887ZM50.7587 146.909L38.8796 147.221L38.9221 159.171L50.5322 158.93L50.7729 146.909H50.7587Z" fill="#102185"/>
<path d="M205.371 168.784C201.463 167.708 198.858 165.443 198.561 161.861C198.207 155.093 198.249 148.226 198.518 141.6C198.66 138.641 200.727 136.97 203.998 136.602C207.127 136.262 210.454 136.177 213.541 136.29C224.499 136.347 235.317 136.446 246.304 136.658C251.557 136.658 254.162 138.952 254.459 144.276C254.856 150.591 255.082 156.806 255.167 163.064C255.294 166.533 252.888 168.586 248.838 168.714C244.378 168.94 239.847 168.898 235.345 168.983L209.137 169.181C207.693 169.251 206.362 169.139 205.329 169.096L205.399 168.784H205.371ZM244.095 157.896C244.35 154.187 244.152 150.449 243.684 146.768H231.281C231.239 150.718 231.055 154.116 231.111 157.896L244.053 157.755L244.081 157.896H244.095ZM220.535 158.179L220.606 146.64H208.797C208.797 150.732 208.783 154.229 208.727 158.179L220.408 158.208L220.549 158.179H220.535Z" fill="#102185"/>
<path d="M167.016 216.032C166.633 217.433 165.741 218.538 164.637 219.387C163.504 220.109 161.989 220.478 160.644 220.378C159.412 220.095 158.351 219.345 157.629 218.212C156.906 217.079 156.609 215.833 156.878 214.602C156.977 213.851 157.26 213.2 157.572 212.676C157.982 211.996 158.464 211.586 158.945 211.175C159.568 210.736 160.22 210.425 160.942 210.397C161.635 210.227 162.343 210.198 162.966 210.34C163.589 210.481 164.241 210.75 164.75 211.062C165.26 211.373 165.841 211.954 166.124 212.478C166.534 212.959 166.704 213.653 166.874 214.333C167.044 215.012 166.902 215.635 166.803 216.386L167.016 216.046V216.032Z" fill="#102185"/>
<path d="M123.619 225.73C124.242 225.871 124.893 226.14 125.431 226.593C125.969 227.046 126.522 227.485 126.805 228.009C127.215 228.491 127.385 229.184 127.555 229.864C127.725 230.544 127.583 231.167 127.484 231.917C127.074 233.191 126.309 234.253 125.035 235.003C123.902 235.726 122.486 235.924 121.226 235.513C120.603 235.372 119.952 235.103 119.442 234.791C118.89 234.338 118.479 233.857 118.069 233.375C117.658 232.894 117.488 232.2 117.318 231.521C117.149 230.841 117.29 230.218 117.432 229.595C117.573 228.972 117.842 228.321 118.295 227.783C118.749 227.245 119.23 226.82 119.711 226.409C120.363 226.098 120.886 225.829 121.609 225.8C122.302 225.63 122.911 225.772 123.534 225.914L123.633 225.744L123.619 225.73Z" fill="#102185"/>
<path d="M146.471 222.572C147.703 222.855 148.935 223.705 149.657 224.852C150.379 225.984 150.577 227.4 150.294 228.632C150.011 229.864 149.147 231.096 148.015 231.818C146.882 232.54 145.466 232.738 144.234 232.455C143.003 232.172 141.771 231.322 141.049 230.175C140.327 229.043 140.128 227.627 140.412 226.395C140.695 225.163 141.558 223.932 142.691 223.209C143.824 222.487 145.24 222.289 146.471 222.572Z" fill="#102185"/>
<path d="M128.179 220.534C126.947 220.251 125.885 219.5 125.333 218.467C124.653 217.476 124.483 216.201 124.625 214.998C124.908 213.766 125.517 212.732 126.522 212.053C127.527 211.373 128.759 211.062 129.963 211.203C130.586 211.345 131.194 211.487 131.747 211.926C132.256 212.237 132.808 212.69 133.077 213.2C133.488 213.681 133.658 214.375 133.8 214.913C133.969 215.607 133.969 216.187 133.828 216.796C133.686 217.419 133.417 218.07 133.106 218.58C132.794 219.09 132.313 219.5 131.832 219.911C131.35 220.321 130.656 220.491 130.118 220.633C129.58 220.775 128.844 220.803 128.235 220.661L128.207 220.52L128.179 220.534Z" fill="#102185"/>
<path d="M169.535 227.372C170.158 227.514 170.668 227.826 171.178 228.137C171.688 228.449 172.098 228.93 172.381 229.44C172.65 229.949 172.933 230.473 172.962 231.195C173.103 231.747 172.962 232.356 172.82 232.979C172.679 233.602 172.41 234.253 172.098 234.763C171.787 235.273 171.305 235.684 170.654 235.995C170.144 236.264 169.479 236.576 168.898 236.576C168.346 236.717 167.596 236.604 166.944 236.335C165.713 236.052 164.778 235.259 164.198 234.098C163.645 233.064 163.49 231.79 163.759 230.558C164.042 229.326 164.835 228.392 165.967 227.684C167.001 227.132 168.233 226.834 169.465 227.103L169.535 227.372Z" fill="#102185"/>
</svg>

<svg xmlns="http://www.w3.org/2000/svg" width="283" height="258" fill="none" viewBox="0 0 283 258"><path fill="#102185" d="M81.667 57.739c.043-3.37.057-6.287.057-9.203.042-1.615.042-3.37.212-5.013.425-4.771 2.874-7.277 7.646-7.433 7.56-.113 15.15-.099 22.696-.212 1.161 0 2.308-.128 3.738-.199l.057-18.675c.042-2.775-.014-5.394.056-8.042.085-4.389 1.912-6.456 6.202-6.782 4.12-.439 8.169-.566 12.332-.863C140.978.92 147.264.382 153.452.028c5.323-.297 7.716 1.742 8.013 7.065.496 7.9.85 15.83 1.246 23.9.071.864.128 1.713.34 3.13 4.262.112 8.41.396 12.63.382 4.53.042 9.061.098 13.465.17 7.348.226 10.392 3.114 10.788 10.604.199 4.332.114 8.722.17 13.082-.042 1.034.057 2.025.128 3.47 4.12.141 8.07.198 12.02.24 19.78.368 39.517.58 59.438.92 2.535.241 5.013.808 7.349 1.983 2.605 1.104 3.044 3.483 3.115 6.088-.057 6.287.028 12.53-.014 18.817-.071 27.439.028 54.978.085 82.375.084 6.838.438 13.606.523 20.43.029 1.883-.212 3.851-.637 5.692-.24 1.373-1.147 2.464-2.109 3.285-1.105.849-2.478 1.189-3.809 1.09-18.718.396-37.577.821-56.252 1.359-9.713.213-19.582.467-29.266.821-1.034-.042-1.997.199-3.441.27l1.331 5.365c3.341 11.129 6.839 22.371 10.322 33.472.198.821.439 1.784.778 2.577 2.86 6.881-.821 10.845-8.509 11-10.888.213-21.804-.297-32.791-.495-19.638-.396-39.319-.934-58.957-1.331-8.212-.156-10.463-3.398-7.39-11.015 4.46-11.454 8.749-23.022 13.181-34.618.34-.963.552-1.883.722-2.945-6.117.057-11.808 0-17.514-.043-25.486.17-50.83.312-76.301.482-3.2.057-6.386.113-8.963-2.605-.963-.935-1.642-1.926-2.223-3.101-.58-1.175-.75-2.435-.92-3.71.127-6.598.1-13.153.255-19.609.467-31.177.75-62.468 1.218-93.645.056-6.867.07-13.876.254-20.77.043-1.615.354-3.3.836-4.871.34-.963 1.005-1.855 1.897-2.365s1.996-.779 2.888-.708c14.966.382 30.073.737 45.01.977 8.963.27 17.996.227 26.916.34.482.17 1.161 0 2.337 0l.028.141zm-.141 10.675-69.463-.764-1.685 129.494c1.614.043 2.96.142 4.12.142l33.203-.184c19.1-.057 38.327-.142 57.385-.326 1.713-.127 3.299-.226 4.983-.495.029-9.345.184-18.138.312-27.058 0-8.891.453-17.613.042-26.405-1.642-.17-2.817-.184-4.021-.326-1.345-.113-2.506-.694-3.469-1.628-.962-.935-1.401-2.138-1.43-3.441s.383-2.577 1.317-3.539c.935-.963 2.096-1.544 3.398-1.572 1.997-.198 3.88-.227 5.777-.255 16.452-.127 32.933-.113 49.385-.241 8-.084 15.901.001 23.929.071 3.808.085 5.932 2.181 5.819 5.267-.043 2.775-2.209 4.63-5.749 5.069-1.444.071-2.987.297-4.672.566l1.614 51.962c30.016-.708 59.452-1.416 88.704-2.237.694-4.262 1.034-116.2-.51-118.89-23.276-.368-46.737-.849-70.255-1.005-.142 1.784-.142 2.96-.326 4.022-.665 5.564-2.704 7.376-8.197 7.56-5.225.127-10.478.113-15.872.128-3.2.056-6.386.113-9.855.254-.17 1.643-.255 3.13-.212 4.432.014 5.975.071 12.092-.043 18.095-.085 4.984-1.939 6.895-6.753 6.923-11.327.17-22.597.043-33.967.085-4.531-.042-6.697-2.279-7.093-6.853-.17-3.015-.298-5.904-.425-8.792a927 927 0 0 1-.482-14.91c-4.148-.282-7.999-.495-11.808-.58-5.324-.283-10.845-.24-16.24-.793-6.116-.537-7.858-2.873-7.844-8.707.071-1.472-.028-3.058.085-4.984l.27-.07zm108.058 5.239c-.07-9.755-.254-18.746-.269-28.232-2.067-.071-3.879-.354-5.635-.354-8.212-.156-16.41-.312-24.65-.609-4.573-.184-6.173-1.968-6.4-6.442-.368-5.593-.594-11.228-.849-17.005-.227-3.299-.326-6.626-.666-10.336-8.382.326-16.282.821-24.381 1.657-.042 2.194-.212 3.851-.113 5.423-.014 7.008.071 13.833.042 20.841.029 4.814-1.798 6.867-6.47 7.433-2.988.298-6.187.369-9.232.383-5.975.014-11.95.042-18.618.227-.085 8.48-.114 16.65-.142 24.833a87 87 0 0 1 2.719.354c7.829.397 15.617.666 23.418.92 5.876.157 8.75 2.365 9.515 9.6.141.553.099.991.099 1.586.198 5.493.24 11.03.439 16.523.24.963.368 2.096.75 3.03 8.963-.326 17.614.453 26.307-.382 0-1.161.113-1.926.212-2.676-.014-6.556-.17-13.083.128-19.567.085-4.984 2.251-6.825 7.334-6.924 3.327-.1 6.697-.057 10.067 0 5.394-.014 10.789-.042 16.579-.156l-.169-.099zm-13.648 132.439-57.966-.254c-4.913 13.167-10.194 26.009-14.98 39.729l85.504 1.911a3794 3794 0 0 0-12.558-41.386m-5.806-63.614-20.53.113c.015 17.783.085 35.128.34 52.713h21.875l-1.713-52.968zm-30.724 52.67c-.198-17.897-.085-35.128-.481-52.684l-17.897.198c-.113 17.826-.538 34.986-.453 52.472l18.675.056.142-.028z"/><path fill="#102185" d="M204.706 122.995c-4.12-1.316-7.136-3.483-7.193-8.438.057-5.706-.042-11.369.184-16.962.184-3.979 2.351-6.414 6.471-6.853 3.44-.269 6.938-.255 10.336-.07l31.219.594c5.706.042 7.83 2.152 8.014 7.646.184 6.668.382 13.323.425 20.02.028 4.219-1.94 6.315-6.06 6.159-14.144-.581-28.331-1.317-42.334-1.94-.269.071-.751-.099-1.062-.17zm25.981-9.33 13.153.694c-.085-4.503-.283-8.241-.34-12.601l-12.7-.071c.057 4.361-.056 8.042-.071 12.119l-.028-.141zm-10.747-.411c.142-4.12.128-7.759.269-11.879l-11.85-.142c0 4.092-.014 7.59-.099 11.398l11.638.482.028.141zM34.675 125.501c-4.73-1.458-7.405-4.007-7.264-8.707.085-6.145.028-12.262.255-18.435.156-4.7 2.28-6.697 7.122-6.57 6.867.057 13.904.213 20.813.397 6.315.184 12.63.383 18.916.425 6.286.057 8.85 2.18 9.359 8.339.425 5.876.58 11.809.439 17.684-.043 4.531-2.733 7.235-7.235 7.334-13.564 0-27.157-.141-40.763-.283-.41.099-1.034-.042-1.515-.212l-.142.028zm38.794-10.024c-.198-4.332-.283-8.24-.41-12.289l-12.602-.241c-.085 4.389-.155 8.212-.141 12.431l13.11-.028.029.141zm-23.928-.071c.425-4.191.397-8.41.07-12.7l-11.708-.17c0 4.673.085 8.58.099 12.814l11.54.07zM84.74 163.447c-.737 4.12-3.073 5.861-7.575 5.96-7.278.043-14.556.1-22.017.043-6.556.014-13.111.028-19.68.056-4.39-.085-6.528-1.6-7.023-5.989-.34-3.709-.524-7.447-.41-11.128-.03-2.478-.058-4.942.084-7.32.057-5.706 2.874-8.439 8.538-8.524 10.789-.042 21.563-.085 32.352-.113 3.2-.057 6.386-.113 9.614-.043 3.54.142 5.62 2.11 5.72 5.437.156 6.528.312 13.055.326 19.61.028.722-.071 1.472-.071 2.053l.142-.028zm-10.45-4.56c-.198-4.332-.212-7.971-.34-12.02l-12.671.071c-.114 4.261-.227 7.928-.241 12.02l13.11-.028.142-.028zM50.76 146.909l-11.88.312.043 11.95 11.61-.241.24-12.021zM205.371 168.784c-3.908-1.076-6.513-3.341-6.81-6.923-.354-6.768-.312-13.635-.043-20.261.142-2.959 2.209-4.63 5.48-4.998 3.129-.34 6.456-.425 9.543-.312 10.958.057 21.776.156 32.763.368 5.253 0 7.858 2.294 8.155 7.618.397 6.315.623 12.53.708 18.788.127 3.469-2.279 5.522-6.329 5.65-4.46.226-8.991.184-13.493.269l-26.208.198c-1.444.07-2.775-.042-3.808-.085l.07-.312zm38.724-10.888c.255-3.709.057-7.447-.411-11.128h-12.403c-.042 3.95-.226 7.348-.17 11.128l12.942-.141.028.141zm-23.56.283.071-11.539h-11.809c0 4.092-.014 7.589-.07 11.539l11.681.029.141-.029zM167.016 216.032c-.383 1.401-1.275 2.506-2.379 3.355-1.133.722-2.648 1.091-3.993.991-1.232-.283-2.293-1.033-3.015-2.166-.723-1.133-1.02-2.379-.751-3.61a5.1 5.1 0 0 1 .694-1.926c.41-.68.892-1.09 1.373-1.501.623-.439 1.275-.75 1.997-.778.693-.17 1.401-.199 2.024-.057a6.2 6.2 0 0 1 1.784.722c.51.311 1.091.892 1.374 1.416.41.481.58 1.175.75 1.855s.028 1.302-.071 2.053l.213-.34zM123.619 225.73c.623.141 1.274.41 1.812.863s1.091.892 1.374 1.416c.41.482.58 1.175.75 1.855s.028 1.303-.071 2.053c-.41 1.274-1.175 2.336-2.449 3.086-1.133.723-2.549.921-3.809.51a6.2 6.2 0 0 1-1.784-.722c-.552-.453-.963-.934-1.373-1.416s-.581-1.175-.751-1.854c-.169-.68-.028-1.303.114-1.926.141-.623.41-1.274.863-1.812.454-.538.935-.963 1.416-1.374.652-.311 1.175-.58 1.898-.609.693-.17 1.302-.028 1.925.114l.099-.17zM146.471 222.572c1.232.283 2.464 1.133 3.186 2.28.722 1.132.92 2.548.637 3.78s-1.147 2.464-2.279 3.186c-1.133.722-2.549.92-3.781.637-1.231-.283-2.463-1.133-3.185-2.28-.722-1.132-.921-2.548-.637-3.78.283-1.232 1.146-2.463 2.279-3.186s2.549-.92 3.78-.637M128.179 220.534c-1.232-.283-2.294-1.034-2.846-2.067-.68-.991-.85-2.266-.708-3.469.283-1.232.892-2.266 1.897-2.945a5.12 5.12 0 0 1 3.441-.85c.623.142 1.231.284 1.784.723.509.311 1.061.764 1.33 1.274.411.481.581 1.175.723 1.713.169.694.169 1.274.028 1.883a6.2 6.2 0 0 1-.722 1.784c-.312.51-.793.92-1.274 1.331-.482.41-1.176.58-1.714.722a4.2 4.2 0 0 1-1.883.028l-.028-.141zM169.535 227.372c.623.142 1.133.454 1.643.765.51.312.92.793 1.203 1.303.269.509.552 1.033.581 1.755.141.552 0 1.161-.142 1.784a6.2 6.2 0 0 1-.722 1.784q-.467.765-1.444 1.232c-.51.269-1.175.581-1.756.581-.552.141-1.302.028-1.954-.241-1.231-.283-2.166-1.076-2.746-2.237-.553-1.034-.708-2.308-.439-3.54.283-1.232 1.076-2.166 2.208-2.874 1.034-.552 2.266-.85 3.498-.581z"/></svg>
